X: 1
T: It's nice to get up in the morning
C: Harry Lauder
R: jig
Z: 2010 John Chambers <jc:trillian.mit.edu>
M: 6/8
L: 1/8
K: G
"D7"B2A \
| "G"GFE DCB,| "G"D2D D2D |  "G"G2G "D7"A2F | "G"G3- "G7"G2B \
| "C"c2d e2d | "G"d2B BAG | "A7"A2E     F2G | "D"A3-     A2c ||
||"C"c2d e2d | "G"d2B BAB | "Em"d2B "A7"BAG | "D"A3  "D7"B2A \
| "G"GFE DCB,| "G"D2D DEF | "A7"GGG "D7"A2F | "G"G3 |]
